ui/StatusQ/src/assets/img/icons/star-icon-outline.svg

<svg fill="none" height="13" viewBox="0 0 14 13" width="14" xmlns="http://www.w3.org/2000/svg"><path clip-rule="evenodd" d="m8.85145 4.58361-1.54375-3.711619c-.11387-.273764-.50168-.273764-.61555 0l-1.54375 3.711619-4.007.32124c-.295556.02369-.415397.39253-.190218.58542l3.052918 2.61515-.93272 3.91018c-.06879.2884.24496.5163.49799.3618l3.43056-2.0954 3.43057 2.0954c.253.1545.5668-.0734.498-.3618l-.93275-3.91018 3.05295-2.61515c.2251-.19289.1053-.56173-.1902-.58542zm2.02505 1.45064c.1126-.09644.0527-.28086-.0951-.29271l-2.00986-.16113c-.37379-.02996-.6994-.26653-.84341-.61277l-.77432-1.86168c-.05693-.13688-.25084-.13688-.30777 0l-.77432 1.86168c-.14401.34624-.46962.58281-.84341.61277l-2.00983.16113c-.14778.01185-.2077.19627-.09511.29271l1.53128 1.31171c.28479.24395.40916.62673.32216.99148l-.46784 1.96126c-.03439.1442.12248.2582.249.1809l1.7207-1.05099c.32002-.19546.72249-.19546 1.04251 0l1.7207 1.05099c.12652.0773.28339-.0367.249-.1809l-.46784-1.96126c-.087-.36475.03737-.74753.32216-.99148z" fill="#ffca0f" fill-rule="evenodd"/></svg>

<svg width="14" height="13" viewBox="0 0 14 13" fill="none" xmlns="http://www.w3.org/2000/svg">
<path fill-rule="evenodd" clip-rule="evenodd" d="M8.85145 4.58361L7.3077 0.871991C7.19383 0.598227 6.80602 0.598227 6.69215 0.871991L5.1484 4.58361L1.1414 4.90485C0.845844 4.92854 0.726003 5.29738 0.951182 5.49027L4.0041 8.10542L3.07138 12.0156C3.00259 12.304 3.31634 12.5319 3.56937 12.3774L6.99993 10.282L10.4305 12.3774C10.6835 12.5319 10.9973 12.304 10.9285 12.0156L9.99575 8.10542L13.0487 5.49027C13.2738 5.29738 13.154 4.92854 12.8585 4.90485L8.85145 4.58361ZM10.8765 6.03425C10.9891 5.93781 10.9292 5.75339 10.7814 5.74154L8.77154 5.58041C8.39775 5.55045 8.07214 5.31388 7.92813 4.96764L7.15381 3.10596C7.09688 2.96908 6.90297 2.96908 6.84604 3.10596L6.07172 4.96764C5.92771 5.31388 5.6021 5.55045 5.22831 5.58041L3.21848 5.74154C3.0707 5.75339 3.01078 5.93781 3.12337 6.03425L4.65465 7.34596C4.93944 7.58991 5.06381 7.97269 4.97681 8.33744L4.50897 10.2987C4.47458 10.4429 4.63145 10.5569 4.75797 10.4796L6.47867 9.42861C6.79869 9.23315 7.20116 9.23315 7.52118 9.42861L9.24188 10.4796C9.3684 10.5569 9.52527 10.4429 9.49088 10.2987L9.02304 8.33744C8.93604 7.97269 9.06041 7.58991 9.3452 7.34596L10.8765 6.03425Z" fill="#FFCA0F"/>
</svg>
